dist/img/svg/telegram.svg

<svg width="19" height="18" viewBox="0 0 19 18" fill="none" xmlns="http://www.w3.org/2000/svg">
<path fill-rule="evenodd" clip-rule="evenodd" d="M2.58486 8.51161C6.9335 6.60645 9.83328 5.35045 11.2842 4.74362C15.4268 3.01097 16.2876 2.71 16.8487 2.70006C16.9721 2.69787 17.248 2.72862 17.4267 2.87445C17.5777 2.99759 17.6192 3.16393 17.639 3.28067C17.6589 3.39742 17.6837 3.66337 17.664 3.87117C17.4395 6.24303 16.4681 11.9989 15.974 14.6554C15.7648 15.7795 15.3531 16.1564 14.9545 16.1933C14.0882 16.2734 13.4304 15.6176 12.5914 15.0646C11.2785 14.1991 10.5368 13.6604 9.26241 12.816C7.78962 11.84 8.74437 11.3036 9.58371 10.427C9.80336 10.1976 13.6201 6.70665 13.694 6.38996C13.7033 6.35036 13.7118 6.20272 13.6246 6.12476C13.5374 6.04681 13.4087 6.07347 13.3158 6.09467C13.1841 6.12472 11.0867 7.51871 7.02363 10.2766C6.4283 10.6877 5.88906 10.888 5.40593 10.8775C4.87331 10.8659 3.84877 10.5747 3.08712 10.3257C2.15294 10.0204 1.41046 9.85893 1.47512 9.34034C1.50879 9.07023 1.8787 8.79399 2.58486 8.51161Z" fill="currentColor"/>
</svg>

<svg width="19" height="18" viewBox="0 0 19 18" fill="none" xmlns="http://www.w3.org/2000/svg"><path fill-rule="evenodd" clip-rule="evenodd" d="M2.585 8.512c4.349-1.906 7.248-3.162 8.7-3.768C15.426 3.01 16.287 2.71 16.848 2.7c.123-.002.399.029.578.174a.64.64 0 01.212.407c.02.116.045.382.025.59-.225 2.372-1.196 8.128-1.69 10.784-.21 1.125-.62 1.501-1.02 1.538-.866.08-1.524-.575-2.363-1.128-1.313-.866-2.054-1.405-3.329-2.249-1.472-.976-.518-1.512.322-2.389.22-.23 4.036-3.72 4.11-4.037.01-.04.018-.187-.07-.265-.087-.078-.215-.052-.308-.03-.132.03-2.23 1.424-6.292 4.182-.596.41-1.135.611-1.618.6-.533-.011-1.557-.302-2.319-.551-.934-.306-1.677-.467-1.612-.986.034-.27.404-.546 1.11-.828z" fill="currentColor"/></svg>
